!!!COM: Beethoven, Ludwig van
!!!CDT: 1770///-1827///
!!!OTL: Piano Sonata No. 19 in G minor
!!!ODT: ~1797///
!!!OPS: 49
!!!ONM: 1
!!!OMV: 1
!!!OMD: Andante
!!!AGN: Sonata
**kern	**kern	**dynam
*staff2	*staff1	*staff1/2
*Ipiano	*Ipiano	*Ipiano
*>[A,A,B]	*>[A,A,B]	*>[A,A,B]
*>norep[A,B]	*>norep[A,B]	*>norep[A,B]
*>A	*>A	*>A
*clefF4	*clefG2	*
*k[b-e-]	*k[b-e-]	*k[b-e-]
*g:	*g:	*g:
*M2/4	*M2/4	*M2/4
*MM84	*MM84	*MM84
8r	(8d	p
=1	=1	=1
8r	8b-L	.
8B- (8dL	8g	.
8A 8c	8f#	.
8G 8B-J)	8gJ)	.
=2	=2	=2
8F# (8AL	2d 2cc	mf
8D 8F#	.	p
8En 8G	.	.
8F# 8AJ)	.	.
=3	=3	=3
8G (8B-L	(8b-L	.
8B- 8d	8g	.
8A 8c	8f#	.
8G 8B-J)	8gJ)	.
=4	=4	=4
(8CL	2g 2ee-	mf
8E-	.	p
8G	.	.
8cJ	.	.
=5	=5	=5
4B-)	8dd'	.
.	(8ff#L	.
8r	8ggJ)	.
8B- 8d	(8dd	.
=6	=6	=6
4F# 4d	8cc)	.
.	(8gg#L	.
8r	8aaJ)	.
8F# 8d	(8cc	.
!!LO:LB:g=original
=7	=7	=7
4G 4d	8b-L	.
.	8ggn	.
4C 4c	8a	.
.	8ee-J)	.
=8	=8	=8
[4D (4B-	(8.gL	.
.	32aLL	.
.	32gJJJ	.
8D] 8A)	8f#')	.
8r	(8d	.
=9	=9	=9
8r	8b-L	.
8B- (8dL	8g	.
8A 8c	8f#	.
8G 8B-J)	8gJ)	.
=10	=10	=10
8F# (8AL	2d 2cc	mf
8D 8F#	.	p
8En 8G	.	.
8F# 8AJ)	.	.
=11	=11	=11
8G (8B-L	(8b-L	.
8B- 8d	8g	.
8A 8c	8f#	.
8G 8B-J)	8gJ)	.
=12	=12	=12
*^	*	*
8CL	(>4.C	4.ee-	fp
8E-	.	.	.
8G	.	.	.
8AJ	8C	[8ee-	.
!!LO:LB:g=original
=13	=13	=13	=13
4B-)	4D	(16ee-LL]	.
.	.	16dd	.
.	.	16ff	.
.	.	16eenJJ	.
8r	8r	16ggLL	.
.	.	16ff	.
8F	8D	16ee-	.
.	.	16ddJJ)	.
=14	=14	=14	=14
.	.	(16ccqLL	.
.	.	16ddq	.
.	.	16ee-qJJ	.
8GL	4E-	(8ddL)	p
8c	.	8ccJ)	.
.	.	(16bnqLL	.
.	.	16ccq	.
.	.	16ddqJJ	.
8G	4En	(8ccL)	.
8cJ	.	8b-J)	.
*v	*v	*	*
=15	=15	=15
.	(16aqLL	.
.	16b-q	.
.	16ccqJJ	.
4F 4c	(16b-LL)	.
.	16a	.
.	16g	.
.	16fJJ	.
4r	16enLL	.
.	16f	.
.	16g	.
.	16fJJ)	.
=16	=16	=16
!	!LO:TX:b:i:t=dolce	!
16ALL	(8ee-XL>	.
16f	.	.
16c	8a)	.
16fJJ	.	.
16e-LL	(8a'	.
16f	.	.
16c	8a'J)	.
16fJJ	.	.
=17	=17	=17
16dLL	(8.b-SSsL	.
16f	.	.
16B-	.	.
16fJJ	16ddJk	.
16dLL	8ff')	.
16f	.	.
16B-	8ff'	.
16fJJ	.	.
!!LO:LB:g=original
=18	=18	=18
16ALL	(8eee-L	.
16f	.	.
16c	8aa)	.
16fJJ	.	.
16e-LL	(8aa'	.
16f	.	.
16c	8aa'J)	.
16fJJ	.	.
=19	=19	=19
16dLL	(8.bb-SSsL	.
16f	.	.
16B-	.	.
16fJJ	16dddJk)	.
16dLL	8fff'	.
16f	.	.
16B-	8f'	.
16fJJ	.	.
=20	=20	=20
16ALL	(8ee-L>	.
16f	.	.
16c	8a)	.
16fJJ	.	.
16e-LL	(8a'	.
16f	.	.
16c	8a'J)	.
16fJJ	.	.
=21	=21	=21
16dLL	(8.b-L	.
16f	.	.
16B-	.	.
16fJJ	16ccJk	.
16A-LL	16ddLL	<
16f	16b-	.
16B-	16cc	.
16fJJ	16ddJJ)	.
=22	=22	=22
16GLL	(8.ee-SSsL	.
16e-	.	.
16B-	.	.
16e-JJ	16ffJk	.
16E-LL	16ggLL	.
16e-	16aa	.
16B-	16bb-	.
16e-JJ	16ggJJ)	.
!!LO:LB:g=original
=23	=23	=23
16FLL	(16eenLL	mf
16d	16ff	.
16B-	16gg	.
16dJJ	16ffJJ)	.
16FLL	(16ffLL	.
16e-	16ee-	.
16A	16dd	.
16e-JJ	16ccJJ)	.
=24	=24	=24
4B- 4d	(16cc#LL	.
.	16dd	.
.	16ee-	.
.	16ddJJ	.
4r	16ffLL	.
.	16ee-	.
.	16dd	.
.	16ccnJJ)	.
=25	=25	=25
16dLL	(8.b-SSsL	p
16f	.	.
16B-	.	.
16fJJ	16ccJk	.
16A-LL	16ddLL	.
16f	16b-	.
16B-	16cc	.
16fJJ	16ddJJ)	.
=26	=26	=26
16GLL	(16ee-LL	<
16e-	16ff	.
16B-	16gg	.
16e-JJ	16aanJJ)	.
16E-LL	(16cccLL	.
16e-	16bb-	.
16B-	16aa	.
16e-JJ	16ggJJ)	.
=27	=27	=27
16DLL	(16ggLL	f
16d	16ff	.
16B-	16een	.
16dJJ	16ffJJ	.
16E-LL	16aaLL	.
16c	16gg	.
16G	16ff	.
16cJJ	16ee-JJ)	.
!!LO:LB:g=original
=28	=28	=28
16FLL	(16ee-LL	.
16d	16dd	.
16B-	16cc#	.
16dJJ	16ddJJ	.
16FLL	16ffLL	.
16e-	16ee-	.
16A	16dd	.
16e-JJ	16ccnJJ)	.
=29	=29	=29
(16B- 16dLL	4b-	.
16f	.	>
16en	.	.
16fJJ	.	.
16gLL	8r	.
16f	.	.
16e-	(16ccLL	.
16dJJ)	16ddJJ	.
=30	=30	=30
(16cLL	8ee-L	.
16f	.	.
16e-	8a)	.
16fJJ	.	.
16F 16cLL	(8a'	.
16f	.	.
16e-	8a'J)	.
16fJJ)	.	.
=31	=31	=31
(16B- 16dLL	4b-	.
16f	.	.
16en	.	.
16fJJ	.	.
16gLL	8r	.
16f	.	.
16e-	(16ccLL	.
16dJJ)	16ddJJ	.
=32	=32	=32
(16cLL	8ee-L	.
16f	.	.
16e-	8a)	.
16fJJ	.	.
16F 16cLL	(8a'	.
16f	.	.
16e-	8a'J)	.
16fJJ)	.	.
=33	=33	=33
[4B- (4e-	4a (4cc	.
8B-] 8d)	8b-)	.
!!LO:LB:g=original
=:|!	=:|!	=:|!
*>B	*>B	*>B
!	!	!LO:DY:rj
8BB-T	8B-T	f
=34	=34	=34
8FL	(8fL	sf
8BB-	8B-)	.
8BB-'	8B-'	.
8BB-TJ	8B-TJ	.
=35	=35	=35
(8FL	(8fL	sf
8AA-)	8A-)	.
8AA-'	8A-'	.
8AA-TJ	8A-TJ	.
=36	=36	=36
(8GGL<	(8GL	sf >
8BB-	8B-	.
8E-	8e-	.
8GJ)	8gJ)	]]
=37	=37	=37
*^	*^	*
(8A-L	4AA-	(8fL	4c	p
8FJ)	.	8a-)	.	.
(8FL	4BB-	(8d	4A-	.
8DJ)	.	8B-J)	.	.
*v	*v	*	*	*
*	*v	*v	*
=38	=38	=38
8EE- 8E-	8G 8B- 8e-	.
*clefG2	*	*
8e- 8gL	8r	.
8e- 8gJ	16r	.
.	(16ggLL	.
8r	16ff	.
.	16ee-JJ	.
=39	=39	=39
8r	8dd)	.
8f 8a-L	8r	.
8f 8a-J	16r	.
.	(16aa-LL	.
8r	16gg	.
.	16ffJJ	.
!!LO:LB:g=original
=40	=40	=40
8r	8ee-)	.
8g 8b-L	16r	.
.	(16eee-	.
8g 8b-	16dddLL	.
.	16eee-	.
8g 8b-J	16ddd	.
.	16cccJJ	.
=41	=41	=41
(4a- 4cc	16bbnLL	.
.	16ccc	.
.	16bb-	.
.	16aa-JJ	.
4b- 4dd)	16ggLL	.
.	16ff	.
.	16ccc	.
.	16bb-JJ	.
=42	=42	=42
8r	8aa-L	.
8e- 8b-L	8ggJ)	.
8e- 8gJ	16r	.
.	(32ggLLL	.
.	32ff	.
8r	32aa-	.
.	32gg	.
.	32ff	.
.	32ee-JJJ)	.
=43	=43	=43
.	(8ffq	.
8r	(16ee-LL)	.
.	16ddJ)	.
8f 8a-L	8ddJ	.
8f 8a-J	16r	.
.	(32aa-LLL	.
.	32gg	.
8r	32bb-	.
.	32aa-	.
.	32gg	.
.	32ffJJJ)	.
=44	=44	=44
.	(8ggq	.
8r	(16ffLL)	.
.	16ee-J	.
8g 8b-L	8ee-J)	.
8g 8b-	16r	.
.	(32eee-LLL	.
.	32ddd	.
8g 8b-J	32fff	.
.	32eee-	.
.	32ddd	.
.	32cccJJJ)	.
!!LO:LB:g=original
=45	=45	=45
4a-/ 4cc/	(16bbnLL	.
.	16ccc	.
.	16bb-	.
.	16aa-JJ	.
4B- 4f 4a-	16ggLL	.
.	16ff	.
.	16aa-	.
.	16ddJJ)	.
=46	=46	=46
16e- 16gLL	4ee-	.
(16b-	.	.
16an	.	.
16b-JJ	.	.
16ccLL	8r	.
16b-	.	.
16a-	(16ffLL	.
16gJJ)	16ggJJ	.
=47	=47	=47
16fLL	8aa-L	>
16b-	.	.
16a-	8dd)	]
16b-JJ	.	.
16B- 16fLL	(8dd'	.
16b-	.	.
16a-	8dd'J)	.
16b-JJ	.	.
=48	=48	=48
(16e-LL	4ee-	.
16g	.	.
16f#	.	.
16gJJ	.	.
16a-LL	8r	.
16g	.	.
16fn	(16ddLL	.
16e-JJ)	16ee-JJ	.
=49	=49	=49
16dLL	8ffL	.
16g	.	.
16f	8bn)	.
16gJJ	.	.
16G 16dLL	(8b'	.
16g	.	.
16f	8b'J)	.
16gJJ	.	.
*clefF4	*	*
!!LO:LB:g=original
=50	=50	=50
16cLL	4cc	.
16d	.	.
16e-	.	.
16dJJ	.	.
16cLL	8r	.
16B-	.	.
16An	16an (16aanLL	.
16GJJ	16b- 16bb-JJ	.
=51	=51	=51
16F#LL	8cc 8cccL	f
16d	.	.
16A	8f# 8ff#)	.
16dJJ	.	.
16cLL	8f#' 8ff#'	.
16d	.	.
16A	8f#' 8ff#'J	.
16dJJ	.	.
=52	=52	=52
16B-LL	4g (4gg	>
16d	.	.
16G	.	.
16dJJ	.	.
16F#LL	4a 4aa)	]
16d	.	.
16A	.	.
16dJJ	.	.
=53	=53	=53
16GLL	8cc (8cccL	p
16d	.	.
16B-	8b- 8bb-	.
16dJJ	.	.
16E-LL	8a 8aa	.
16c#	.	.
16G	8g 8ggJ	.
16c#JJ	.	.
=54	=54	=54
16DLL	8f# 8ff#)	.
16d	.	.
16F#	8r	.
16dJJ	.	.
16ALL	16r	.
16d	(16ddLL	.
16F#	16cc#	.
16dJJ	16ddJJ)	.
!!LO:LB:g=original
=55	=55	=55
16DLL	8b- 8gg	.
16d	.	.
16G	8r	.
16dJJ	.	.
16B-LL	16r	.
16d	(16ddLL	.
16G	16cc#	.
16dJJ	16ddJJ)	.
=56	=56	=56
16DLL	8a	.
16d	.	.
16F#	8r	.
16dJJ	.	.
16ALL	16r	.
16d	(16ddLL	.
16F#	16cc#	.
16dJJ	16ddJJ)	.
=57	=57	=57
16DLL	8b- 8gg	.
16d	.	.
16G	8r	.
16dJJ	.	.
16B-LL	16r	.
16d	(16ddLL	.
16G	16cc#	.
16dJJ	16ddJJ)	.
=58	=58	=58
(16DLL	(4a	<
16d	.	.
16F#	.	.
16dJJ	.	.
16DLL	4bn/	.
16d	.	[
16G#	.	.
16dJJ	.	.
=59	=59	=59
16DLL	4.cc	sf >
16d	.	.
16G#	.	.
16dJJ	.	.
16ALL	.	.
16d	.	.
16Gn	8b-X)	]
16dJJ)	.	.
!!LO:LB:g=original
=60	=60	=60
16DLL	(8aL	<
16d	.	.
16F#	8aaJ	.
16dJJ	.	.
16DLL	8bnL	.
16d	.	.
16G#	8bbnJ	.
16dJJ	.	[[
=61	=61	=61
16DLL	8cc	.
16d	.	.
16G#	4cccz	.
16dJJ	.	.
16ALL	.	.
16d	.	.
16Gn	8b-X)	.
16dJJ	.	.
=62	=62	=62
16DLL	(8aL	<
16d	.	.
16F#	8aaJ	.
16dJJ	.	.
16DLL	8bnL	.
16d	.	.
16G#	8bbnJ	.
16dJJ	.	.
=63	=63	=63
4D: 4A: 4d:	8ccL	.
.	8cccJ	.
4r	8cc#L	.
.	8ccc#J)	[[
=64	=64	=64
8r	(8ddL	p
8B- (8dL	8g	.
8A 8c	8f#	.
8G 8B-J)	8gJ)	.
!!LO:LB:g=original
=65	=65	=65
!	!	!LO:DY:rj
8F# (8AL	2d 2cc	sf >
8D 8F#	.	.
8En 8G	.	.
8F# 8AJ)	.	]]
=66	=66	=66
8G (8B-L	(8b-L	p
8B- 8d	8g	.
8A 8c	8f#	.
8G 8B-J)	8gJ)	.
=67	=67	=67
(8CL	2g 2ee-	sf >
8E-	.	.
8G	.	.
8cJ	.	]
=68	=68	=68
4B-)	8dd'	.
.	(8ff#L	.
8r	8ggJ)	.
8B- 8d	(8dd	.
=69	=69	=69
4F# 4d	8cc)	.
.	(8gg#L	.
8r	8aaJ)	.
8F# 8d	(8cc	.
=70	=70	=70
4G 4d	8b-L	.
.	8ggn	.
4C 4c	8a	.
.	8ee-J)	.
=71	=71	=71
[4D (4B-	(8.gL	.
.	32aLL	.
.	32gJJJ	.
8D] 8A)	8f#')	.
8d	8r	.
*clefG2	*	*
!!LO:LB:g=original
=72	=72	=72
(8b-L	16r	.
.	(16ddLL	.
8g	16bb-	.
.	16ddJJ	.
8f#	16cc 16aaLL	.
.	16dd	.
8gJ)	16b- 16gg	.
.	16ddJJ)	.
=73	=73	=73
!LO:DY:rj	!	!
2dz 2ccz	(16ff#LL	.
.	16dd	.
.	16cc#	.
.	16ddJJ	.
.	16eenLL	.
.	16ff#	.
.	16gg	.
.	16aaJJ)	.
=74	=74	=74
(8b-L	(16bb-LL	.
.	16dd	.
8g	16bb- 16ddd	.
.	16ddJJ	.
8f#	16aa 16cccLL	.
.	16dd	.
8gJ)	16gg 16bb-	.
.	16ddJJ)	.
=75	=75	=75
!LO:DY:rj	!	!
2fnz 2ee-zX	(16aaLL	.
.	16ff	.
.	16een	.
.	16ffJJ	.
.	16ggLL	.
.	16aa	.
.	16bb-	.
.	16cccJJ)	.
=76	=76	=76
8b- 8dd	(16dddLL	.
.	16ff	.
(8b-L	16ddd 16fff	.
.	16ffJJ	.
8a	16ccc 16eee-LL	.
.	16ff	.
8b-J)	16bb- 16ddd	.
.	16ffJJ)	.
!!LO:LB:g=original
=77	=77	=77
(8f#L	16aa (16cccLL	.
.	16dd	.
8gJ)	16gg 16bb-	.
.	16ddJJ	.
(8dL	16ff# 16aaLL	.
.	16cc	.
8e-J)	16gg	.
.	16b-JJ)	.
*clefF4	*	*
=78	=78	=78
(4.c	16r	f
.	(16aLL	.
.	16ee-	.
.	16ddJJ	.
.	16ccLL	.
.	16b-	.
8c#	16a	.
.	16gJJ)	.
=79	=79	=79
8d)	(<16f#LL	p
.	16g	.
8r	16a	.
.	16g#JJ	.
4r	16aLL>	.
.	16bn	.
.	16cc	.
.	16bJJ)	.
=80	=80	=80
!	!LO:TX:b:i:t=dolce	!
16F#LL	(8ccL	.
16d	.	.
16A	8f#)	.
16dJJ	.	.
16cLL	(8f#'	.
16d	.	.
16A	8f#'J)	.
16dJJ	.	.
=81	=81	=81
16B-XLL	(8.g\SSsL	.
16d	.	.
16G	.	.
16dJJ	16b-XJk)	.
16B-LL	8dd'	.
16d	.	.
16G	(8dd	.
16dJJ	.	.
!!LO:LB:g=original
=82	=82	=82
16F#LL	8cccL	.
16d	.	.
16A	8ff#J)	.
16dJJ	.	.
16cLL	8ff#'L	.
16d	.	.
16A	8ff#'J	.
16dJJ	.	.
=83	=83	=83
16B-LL	(8.ggSSsL	.
16d	.	.
16G	.	.
16dJJ	16bb-'Jk)	.
16B-LL	8ddd'	.
16d	.	.
16G	(8d	.
16dJJ	.	.
=84	=84	=84
16F#LL	8ccL	.
16d	.	.
16A	8f#)	.
16dJJ	.	.
16cLL	(8f#'	.
16d	.	.
16A	8f#'J)	.
16dJJ	.	.
=85	=85	=85
16B-LL	(8.gSSsL	.
16d	.	.
16G	.	.
16dJJ	16aJk	.
16FnLL	16bnLL	.
16d	16g	.
16G	16a	.
16dJJ	16bJJ)	.
=86	=86	=86
16E-LL	(8.ccSSsL	.
16c	.	.
16G	.	.
16cJJ	16ddJk	.
16CLL	16ee-LL	.
16G	16ff	.
16E-	16gg	.
16GJJ	16ee-JJ)	.
!!LO:LB:g=original
=87	=87	=87
16BB-LL	(8ddL	mf
16G	.	.
16D	16ee-L	.
16GJJ	16ddJJ	.
16CLL	16ffLL	.
16A	16ee-	.
16E-	16dd	.
16AJJ	16ccJJ)	.
=88	=88	=88
16DLL	(8.b-SSsL	.
16B-	.	.
16G	.	.
16B-JJ	16ccJk	.
16DLL	16ddLL	.
16c	16cc	.
16F#	16b-	.
16cJJ	16aJJ)	.
=89	=89	=89
16GLL	(8.gSSsL	p
16d	.	.
16B-	.	.
16dJJ	16aJk	.
16FnLL	16bnLL	.
16d	16g	.
16G	16a	.
16dJJ	16bJJ)	.
=90	=90	=90
16E-LL	(8.ccSSsL	<
16c	.	.
16G	.	.
16cJJ	16ddJk	.
16CLL	16ee-LL	.
16G	16een	.
16E-	16ff	.
16GJJ	16ff#JJ)	.
=91	=91	=91
16C#LL	[4gg	f
16B-	.	.
16En	.	.
16B-JJ	.	.
16GLL	8.ggSSsL]	.
16B-	.	.
16E	.	.
16B-JJ	16aaJk	.
!!LO:LB:g=original
=92	=92	=92
16C#LL	4bb-	sf
16B-	.	.
16En	.	.
16B-JJ	.	.
16GLL	(4c#	sf
16B-	.	.
16E	.	.
16B-JJ	.	.
=93	=93	=93
16DLL	8d')	.
16d	.	.
16G	(4dd	p
16dJJ	.	.
16B-LL	.	.
16d	.	.
16G	16cc#LL	.
16dJJ	16ddJJ	.
=94	=94	=94
16DLL	16ee-LL	.
16d	16dd	.
16A	16ccn	.
16dJJ	16b-JJ	.
16cLL	16aLL<	.
16d	16b-	.
16A	16cc	.
16dJJ	16f#JJ)	.
=95	=95	=95
16DLL	(8g	.
16d	.	.
16G	4gg^)	.
16dJJ	.	.
16B-LL	.	.
16d	.	.
16G	(16cc#LL	.
16dJJ	16ddJJ	.
=96	=96	=96
16DLL	16ee-LL	.
16d	16dd	.
16A	16ccn	.
16dJJ	16b-JJ	.
16cLL	16aLL<	.
16d	16b-	.
16A	16cc	.
16dJJ	16f#JJ)	.
!!LO:LB:g=original
=97	=97	=97
4G	8gL	pp
.	8G< 8B-< 8d<	.
8rBBB	8G< 8B-< 8d<	.
8DD	8G< 8B-< 8d<J	.
=98	=98	=98
*^	*	*
!	!LO:DY:rj	!	!
8A 8c 8dL	(>8CLz	2ryy	.
8A 8c 8d	8FF#)	.	.
8A 8c 8d	(>8FF#'>	.	.
8A 8c 8dJ	8FF#'>J)	.	.
=99	=99	=99	=99
8G 8B- 8dL	4GG	2ryy	.
8G 8B- 8d	.	.	.
8G 8B- 8d	8rBBB	.	.
8G 8B- 8dJ	8DD	.	.
=100	=100	=100	=100
!	!LO:DY:rj	!	!
8A 8c 8dL	(>8CzL	2ryy	.
8A 8c 8d	8FF#)	.	.
8A 8c 8d	(>8FF#'>	.	.
8A 8c 8dJ	8FF#'>J)	.	.
=101	=101	=101	=101
8G 8B- 8dL	4GG	2ryy	.
8G 8B- 8d	.	.	.
8G 8B- 8d	8rBBB	.	.
8G 8B- 8dJ	8DD	.	.
*v	*v	*	*
=102	=102	=102
*^	*	*
!	!LO:DY:rj	!	!
8A 8c 8dL	(>8CzL	2ryy	.
8A 8c 8d	8FF#)	.	.
8A 8c 8d	(>8FF#'>	.	.
8A 8c 8dJ	8FF#'>J)	.	.
!!LO:LB:g=original
=103	=103	=103	=103
8B- (8dL	2GG	2ryy	pp
8G	.	.	.
8Bn 8f	.	.	.
8GJ	.	.	.
=104	=104	=104	=104
8c 8e-L	2GGG	2ryy	.
8G	.	.	.
8E- 8c	.	.	.
8F#J)	.	.	.
=105	=105	=105	=105
8D (8BnL	2GG	2ryy	.
8G	.	.	.
8Fn 8d	.	.	.
8GJ	.	.	.
=106	=106	=106	=106
8E- 8cL	2GGG	2ryy	.
8G	.	.	.
8C 8F#	.	.	.
8E-J)	.	.	.
=107	=107	=107	=107
8BBn (8GL	2GGG 2GG	2ryy	.
8D	.	.	.
8C 8F#	.	.	.
8E-J	.	.	.
=108	=108	=108	=108
8BBn 8GL	2GGG 2GG	2ryy	.
8D	.	.	.
8C 8F#	.	.	.
8E-J)	.	.	.
=109	=109	=109	=109
8BBn (8GL	4GGG 4GG	2ryy	.
8D	.	.	.
8BB 8G	4GGG 4GG	.	.
8DJ)	.	.	.
=110	=110	=110	=110
4BBn 4G	4GGG 4GG	4ryy	.
8rA	8rGG	8ryy	.
*v	*v	*	*
==	==	==
*-	*-	*-
!!!RDF**kern: > = above
!!!RDF**kern: < = below
!!!verovio: beamFrenchStyle
!!!LOR: Durand 1915, plates 9327/9328, Paul Dukas, ed.
!!!PED: Dukas, Paul
!!!URL-vhv: https://verovio.humdrum.org/?file=beethoven/sonatas/sonata19-1.krn
!!!URL-pdf: https://github.com/craigsapp/beethoven-piano-sonatas/blob/master/reference-edition/sonata19-1.pdf
!!!ENC: Craig Stuart Sapp
!!!END: 2004/09/02
!!!EED: Craig Stuart Sapp
!!!EEV: 2020/08/19
